X:1
T:Cephas, 66.66.88
T:William Henry Monk, 1875
T:Cephas, 66.66.88
T:Public Domain
C:William Henry Monk, 1875
Z:Public Domain
%%score ( 1 2 ) ( 3 4 )
L:1/8
M:none
K:D
V:1 treble 
V:2 treble 
V:3 bass 
V:4 bass 
V:1
 [DF]2 | [DG]2 [DA]2 [DB]2 [GB]2 | [Fd]6 [^Gd]2 | [Ac]2 (BA) [FB]2 [Dc]2 | [CA]6 [A,D]2 | %5
 E2 [DF]2 [DG]2 [DA]2 | [DB]6 [EB]2 | [FA]2 [Fd]2 [EG]2 [DF]2 | [CE]6 [CE]2 | %9
 [DG]2 [DF]2 [DB]2 [DA]2 | [Gc]2 [Fd]2 [Ee]2 [GA]2 | [GB]2 [Gc]2 [Fd]2 [GB]2 | [EA]6 [CA]2 | D6 |] %14
V:2
 x2 | x8 | x8 | x2 E2 x4 | x8 | E2 x6 | x8 | x8 | x8 | x8 | x8 | x8 | x8 | D6 |] %14
V:3
 [D,A,]2 | [B,,G,]2 [D,F,]2 G,2 [E,E]2 | [B,,D]6 [B,,D]2 | [A,,E]2 [C,A,]2 [D,A,]2 [E,^G,]2 | %4
 [A,,A,]6 [D,F,]2 | [C,A,]2 [=C,A,]2 [B,,G,]2 [D,F,]2 | G,6 [G,C]2 | %7
 [F,D]2 [B,,D]2 [C,A,]2 [D,A,]2 | [A,,A,]6 [A,,A,]2 | [B,,G,]2 [D,A,]2 G,2 [F,A,]2 | %10
 [E,A,]2 [D,A,]2 [C,A,]2 [A,C]2 | [A,D]2 [A,E]2 [B,D]2 [G,D]2 | (D2 CB, C2) [A,,G,]2 | [D,F,]6 |] %14
V:4
 x2 | x4 G,2 x2 | x8 | x8 | x8 | x8 | G,6 x2 | x8 | x8 | x4 G,2 x2 | x8 | x8 | A,6 x2 | x6 |] %14

